X: 34290
T: Repeal The Union
R: jig
M: 6/8
K: Fmajor
|:F3 FAc|dcA cdf|gfd cAF|GFG AFD|
F3 FAc|dcA cdf|gfd cdf|1 gag f3:|2 gag fga||
|:aba g2 a|f2 g d2 f|c2 Af2 A|cAF GFD|
F3 FAc|dcA cdf|gfd cdf|1 gag fga:|2 gag f3||
|:F3 A2 B|c3 A2 c|BAB G2 B|AGA FDC|
F2 G A2 B|cdc A2 c|BAB G2 E|1 F3 F2 C:|2 F3 F3||

